X:1
T:Shiny Stockings
L:1/8
M:4/4
K:Fmaj 
^G2|:"Gm7"A2z2GA2c|"C7"zA3G2A2|"Gm7"D2G2AG2A|"C9"z4z^F3|
"Fma7"G2z2FG2c|"Bb9"_zG3F2G2|"Am7"C2F2GF2G|"Abdim"z4z^F3|
"Gm7"F2z2DFAc-|"C"c4-c _A3|"Am7"G2z2EG=Bd-|1"D7"d4-dz _BA|
"Bm7"=z4^FA^ce-|"E9"e4-e ^c3|"A7"A2z2z2z_e|"Eb9"z_ed2"D7"cB3:|2
"D9"d4-d e3|"Gm7/C"f2d2cB2A|"C9"zF3AA2F|"F"z8|"Am7"z4"D7"z4|]
